src/Icon/svgs/Apple.svg

<svg xmlns="http://www.w3.org/2000/svg" width="24" height="24" viewBox="0 0 24 24">
  <path fill="#1B1C1D" fill-rule="evenodd" d="M17.336255,12.0429457 C17.3641638,15.0460465 19.9710056,16.0455814 19.9999998,16.0584496 C19.9778277,16.1288372 19.5833826,17.4824806 18.6265742,18.8807752 C17.7993868,20.0897674 16.9408796,21.2941085 15.5885407,21.3190698 C14.2594592,21.343876 13.8321436,20.5311628 12.3129718,20.5311628 C10.7941101,20.5311628 10.3193496,21.2945736 9.06159065,21.344186 C7.75607661,21.3934884 6.76221141,20.0368992 5.92804685,18.8325581 C4.22343624,16.367907 2.92102318,11.8696124 4.66997786,8.83333333 C5.53887343,7.32527132 7.09122575,6.37054264 8.77630017,6.34604651 C10.0582467,6.32155039 11.2679404,7.20837209 12.0520241,7.20837209 C12.8350224,7.20837209 14.3053537,6.14170543 15.851194,6.29829457 C16.4983692,6.32511628 18.3149253,6.55953488 19.4808951,8.26666667 C19.3870904,8.3248062 17.3137728,9.53178295 17.336255,12.0424806 M14.8387229,4.66868217 C15.5317927,3.82992248 15.9984907,2.66186047 15.8713504,1.5 C14.8722135,1.54031008 13.6640703,2.16573643 12.9475881,3.00387597 C12.3053744,3.74651163 11.742856,4.93472868 11.8948042,6.07364341 C13.0080573,6.15984496 14.1458081,5.50775194 14.8387229,4.66852713"/>
</svg>

<svg xmlns="http://www.w3.org/2000/svg" width="24" height="24"  xmlns:v="https://vecta.io/nano"><path fill="#1b1c1d" fill-rule="evenodd" d="M17.336 12.043c.028 3.003 2.635 4.003 2.664 4.016-.022.07-.417 1.424-1.373 2.822-.827 1.209-1.686 2.413-3.038 2.438-1.329.025-1.756-.788-3.276-.788s-1.994.763-3.251.813c-1.306.049-2.299-1.307-3.134-2.512-1.705-2.465-3.007-6.963-1.258-9.999.869-1.508 2.421-2.463 4.106-2.487 1.282-.024 2.492.862 3.276.862s2.253-1.067 3.799-.91c.647.027 2.464.261 3.63 1.968-.094.058-2.167 1.265-2.145 3.776m-2.498-7.374c.693-.839 1.16-2.007 1.033-3.169-.999.04-2.207.666-2.924 1.504-.642.743-1.205 1.931-1.053 3.07 1.113.086 2.251-.566 2.944-1.405"/></svg>
